X:1
T:Title
%%score 1 ( 2 3 ) 4 5
L:1/8
M:4/2
K:C
V:1 treble nm="Part_1"
V:2 treble-8 nm="Part_2"
V:3 treble-8 
V:4 treble-8 nm="Part_3"
V:5 bass nm="Part_4"
V:1
 z16 | z16 | z16 | z16 | z16 | z16 | G16- | G16 | A16- | A16 | G8 c8- | c4 B2 A2 B8 | %12
 c6 B2 A4 G4- | G4 F2 E2 D8 | C8 z8 | A16- | A8 A8 | G6 F2 G4 A4- | A4 G2 F2 E2 F2 G2 A2 | %19
 B4 c8 B4 | c6 B2 G4 A4- | A2 G2 F2 E2 F8 | E8 z4 G4 | E4 G6 F2 E2 D2 | C8 z4 C4- | %25
 C2 D2 E2 F2 G4 G4- | G2 A2 B2 c2 d2 c2 B2 A2 | G4 A8 G4- | G4 ^F2 E2 F8 | G16 || z16 | z16 | %32
 G8 A4 B4 | G4 c8 B4 | c16 | z16 | z16 | z8 z4 G4 | A6 G2 F4 E4 | D4 G6 E2 ^F4 | G16 | z16 | z16 | %43
 z16 | z16 | z8 z4 G4 | A6 A2 G4 E4 | F8 E4 G4- | G4 F2 E2 D8 | C2 D2 E2 F2 G4 A4- | A4 G8 ^F4 | %51
 G8 d8- | d4 c2 B2 A4 B4 | c6 B2 A8- | A4 G4 G8- | G8 ^F8 | G16 || z16 | G8 A8 | (G8 c8-) | %60
 c4 B4 A4 G2 F2 | E6 F2 G4 F4- | F4 E4 D8 | C2 D2 E2 F2 G2 F2 E2 D2 | C2 D2 E2 F2 G4 A4- | %65
 A2 G2 c8 B4 | c16 | z4 G8 F2 E2 | F4 G4 D8 | z4 D6 E2 F2 G2 | A6 B2 c8 | B4 A6 D2 F4 | E8 D4 E4 | %73
 D4 G8 ^F4 | G6 A2 B2 c2 A4 | G4 c8 B4 | c16 | z4 c4 B4 G4 | A4 B6 E2 A4- | A4 G4 F8 | %80
 E4 E4 E4 D4 | E4 F4 G4 G4 | G4 E4 F4 G4 | C4 c6 B2 A2 G2 | F2 E2 D4 d6 c2 | B2 A2 c6 B2 A2 G2 | %86
 F4 G8 ^F4 | G16 || z16 | z16 | G12 A4 | B4 c4 A8 | G8 z8 | z16 | z16 | z16 | G12 A4 | B4 c4 A8 | %98
 G6 A2 B2 c2 d4- | d4 c8 B4 | c16 | z16 | z16 | z16 | z16 | z16 | z8 (c8 | B8) (c8 | d8) c8 | %109
 B4 A8 G2 F2 | E4 D6 E2 F2 G2 | A4 G8 ^F4 | G8 z8 | z16 | z16 | z16 | z16 | z16 | z8 G8 | A8 A8 | %120
 G16- | G16 | c8 c8- | c4 B4 A8 | d12 c4 | B4 A4 G8 | c8 c8- | c4 B4 A8 | d12 c4 | B4 A4 G8- | %130
 G4 ^F2 E2 F8 | G16 || z16 | z8 G8- | G8 A8 | G8 (3:2:1c12- | (3c4 B4 A4 B8 | c4 A8 G2 F2 | %138
 E4 G8 F2 E2 | F2 E2 D2 C2 D8 | C2 D2 E2 F2 G4 A4- | A4 G8 ^F4 | G12 A4- | A2 G2 E4 F8 | E16 | %145
 z16 | z8 G8 | A4 c4 B4 A4- | A4 G2 F2 E8 | z4 F8 E2 D2 | E4 F4 D8 | C2 D2 E2 F2 G2 A2 B2 c2 | %152
 d4 c8 B4 | c16 | z16 | z16 | z8 z4 c4- | c4 c4 c8 | z4 A4 G4 A4 | B4 d8 c4 | B4 A2 G2 F4 A4- | %161
 A4 G8 ^F4 | G8 z8 | z16 | z8 c8 | B4 d8 c4 | B4 A2 G2 F4 A4- | A4 G8 ^F4 | G16- | G16 | G16 | %171
 G16 || z16 | z16 | z16 | z16 | z16 | G16 | A6 B2 c8- | c4 B2 A2 B8 | c16 | z8 c8- | c8 c8 | %183
 c8 c8 | c16 | z4 c8 B2 A2 | B4 A8 d4 | c4 B8 A2 G2 | A4 G6 A2 B2 c2 | d4 c8 B4 | c16 | z16 | z16 | %193
 z16 | z16 | z16 | z16 | z16 | (3:2:2G16 G8 | (3A12 G4 A8 | (3:2:2G16 z8 | (3E12 F4 G8 | %202
 (3A12 G4 A8 | (3(D8 G8) F8 | (3(E8 G8) A8 | (3(B8 c12) d4 | (3(B8 d12) c4 | %207
 (3:2:6B4 A4 c4 B4 A4 G4 | (3(F8 A12) G4 | (3:2:2G16 ^F8 | G16 |] %211
V:2
 d8 B4 G4 | B6 c2 d4 e4 | f4 g8 ^f4 | g16- | g8 e8 | f16 | e4 c2 d2 e2 f2 g4- | g4 f8 e4 | %8
 f8 z4 f4- | f4 e8 d4 | e8 f4 e4- | e4 d2 c2 d8 | c8 z4 C4 | E4 F4 G8 | (A8 F8) | f16- | f8 f8 | %17
 e6 d2 c2 B2 A4 | c6 d2 e6 f2 | g16 | (e12 d4-) | d4 c8 B4 | c4 g4 e4 g4- | g2 f2 e2 d2 c8 | %24
 z4 c6 d2 e2 f2 | g4 c6 d2 e2 c2 | d16 | e16 | d16 | d16 || z16 | z16 | g6 e2 f4 g4- | %33
 g4 f2 e2 d8 | c16 | z16 | z16 | z4 z8 e4 | f6 e2 d4 c4 | d6 G2 B4 A4 | G16 | z16 | z16 | z16 | %44
 z16 | z8 z4 c4 | A6 A2 e8 | A8 e8 | d16 | e6 d2 c2 B2 A4 | d4 d6 c2 B2 A2 | B6 c2 d6 e2 | %52
 f12 e2 d2 | c8 f8 | (d8 (c8) | d16-) | d16 || G8 A8 | G4 c8 B2 A2 | B4 c4 F8- | F4 G4 A4 B4 | %61
 c6 d2 e4 d4- | d4 c8 B4 | c6 d2 e2 f2 g2 f2 | e2 d2 c2 d2 e4 f4- | f2 e2 d2 c2 d8 | c4 c8 B2 A2 | %67
 B4 c4 G8 | z4 G4 G2 A2 B2 c2 | d6 e2 f8 | z4 f8 e4 | d4 f6 e2 d4- | d4 c4 d4 G4 | (B8 A8) | %74
 G4 g8 c4 | (e8 d8) | c8 z4 f4 | e4 c4 d4 e4 | A4 d8 c4 | _B8 A8 | z4 c4 c4 B4 | c4 A4 G4 e4 | %82
 e4 c4 d4 e4 | A8 f6 e2 | d2 c2 B2 A2 G4 g4- | g2 f2 e2 d2 c4 d4- | d4 c2 B2 A8 | G16 || z16 | %89
 z16 | g12 f4 | g4 a4 ^f8 | g8 z8 | z16 | z16 | z16 | g12 f4 | g4 a4 f8 | g12 f4 | e4 d2 c2 d8 | %100
 c16 | z16 | z16 | z8 z4 c4- | c4 B4 c8 | B4 A6 G2 F2 E2 | D4 G8 ^F4 | G8 z4 c4 | B8 A8 | d16 | %110
 c4 B4 d8 | c4 B4 A8 | G8 z8 | z16 | z16 | z16 | z16 | z16 | z8 e8 | f8 f8 | e16- | e16 | A16 | %123
 f8 f8- | f4 e4 d8 | g12 f4 | e4 d4 c8 | f8 f8- | f4 e4 d8 | g12 f2 e2 | d16 | d16 || z16 | z16 | %134
 z16 | z16 | z16 | z16 | z16 | z16 | z16 | z16 | z16 | z16 | z16 | z16 | z16 | z16 | z16 | z16 | %150
 z16 | z16 | z16 | z16 | z16 | z16 | z16 | z16 | z16 | z16 | z16 | z16 | z16 | z16 | z16 | z16 | %166
 z16 | z16 | z16 | z16 | z16 | z16 || z16 | z16 | z16 | z16 | d16 | e8 g8- | g4 f2 e2 f8 | %179
 g8 g2 f2 e2 d2 | e16 | z8 e8- | e8 g8 | f8 f8 | e16- | e16 | z4 f8 e2 d2 | e4 d4 g8 | %188
 f4 e8 d2 c2 | B4 c4 d8 | c16 | z16 | z16 | z16 | z16 | z16 | z16 | z16 | (3:2:2e16 e8 | %199
 (3(A8 c12) d4 | (3:2:2e16 z8 | (3:2:4e12 d4 c4 B4 | (3A8 z8 A8 | (3(G8 E8) F8 | %204
 (3:2:4G12 F4 E4 D4 | (3:2:2D16 C8 | (3:2:2(D16 G8-) | (3:2:2(G8 E16) | (3:2:2F8 f16 | %209
 (3d12 c4 d8 | B16 |] %211
V:3
 x16 | x16 | x16 | x16 | x16 | x16 | x16 | x16 | x16 | x16 | x16 | x16 | x16 | x16 | x16 | x16 | %16
 x16 | x16 | x16 | x16 | x16 | x16 | x16 | x16 | x16 | x16 | x16 | x16 | x16 | B16 || x16 | x16 | %32
 x16 | x16 | x16 | x16 | x16 | x16 | x16 | x16 | x16 | x16 | x16 | x16 | x16 | x16 | x16 | x16 | %48
 x16 | x16 | x16 | x16 | x16 | x16 | x16 | x16 | x16 || x16 | x16 | x16 | x16 | x16 | x16 | x16 | %64
 x16 | x16 | x16 | x16 | x16 | x16 | x16 | x16 | x16 | x16 | x16 | x16 | x16 | x16 | x16 | x16 | %80
 x16 | x16 | x16 | x16 | x16 | x16 | x16 | x16 || x16 | x16 | x16 | x16 | x16 | x16 | x16 | x16 | %96
 x16 | x16 | x16 | x16 | x16 | x16 | x16 | x16 | x16 | x16 | x16 | x16 | x16 | x16 | x16 | x16 | %112
 x16 | x16 | x16 | x16 | x16 | x16 | x16 | x16 | x16 | x16 | x16 | x16 | x16 | x16 | x16 | x16 | %128
 x16 | x16 | x16 | x16 || x16 | x16 | x16 | x16 | x16 | x16 | x16 | x16 | x16 | x16 | x16 | x16 | %144
 x16 | x16 | x16 | x16 | x16 | x16 | x16 | x16 | x16 | x16 | x16 | x16 | x16 | x16 | x16 | x16 | %160
 x16 | x16 | x16 | x16 | x16 | x16 | x16 | x16 | x16 | x16 | x16 | x16 || x16 | x16 | x16 | x16 | %176
 x16 | x16 | x16 | x16 | x16 | x16 | x16 | x16 | x16 | x16 | x16 | x16 | x16 | x16 | x16 | x16 | %192
 x16 | x16 | x16 | x16 | x16 | x16 | x16 | x16 | x16 | x16 | x16 | x16 | x16 | x16 | x16 | x16 | %208
 x16 | x16 | x16 |] %211
V:4
 G16- | G16 | A16 | G16 | c8 c8- | c4 B2 A2 B8 | c8 G4 c4- | c4 B2 A2 G8 | F12 D4- | D4 E4 F8 | %10
 (E8 (A8) | G16) | A8 c8- | c8 B8 | c16 | c16- | c8 c8 | c16 | c16 | d16 | c8 z8 | z16 | z8 c8 | %23
 c16 | c8 c8- | c8 c8 | B16 | c16 | A16 | G16 || G8 A4 B4 | G4 c8 B4 | c8 z8 | z16 | z8 z4 c4 | %35
 d6 c2 B4 A4 | G4 c8 B4 | c16 | z16 | z16 | z8 z4 G4 | A6 G2 F4 E4 | D4 G8 F4 | G6 A2 B2 c2 d4- | %44
 d4 c8 B4 | c8 c8 | c16 | c16 | B16 | c16 | A16 | G16 | d12 c2 B2 | A16 | (B8 G8) | A16 | G16 || %57
 z16 | z16 | z16 | z16 | z16 | z16 | z16 | z16 | z16 | z16 | z16 | z16 | z16 | z16 | z16 | z16 | %73
 z16 | z16 | z16 | z16 | z16 | z16 | z16 | z16 | z16 | z16 | z16 | z16 | z16 | z16 | z16 || %88
 G12 A4 | B4 c4 A8 | G8 z8 | z16 | G12 A4 | B4 c4 A8 | G6 A2 B2 c2 d4- | d4 c8 B4 | c8 z8 | z16 | %98
 z16 | z16 | z4 c8 B2 A2 | B4 A8 d4- | d2 c2 B2 A2 B4 c4- | c4 B4 A8 | G16 | z16 | z16 | z16 | %108
 z16 | z16 | z16 | z8 c8 | B6 c2 d4 c4- | c4 B2 A2 G4 G2 A2 | B4 A8 G2 F2 | E2 F2 G2 A2 B2 c2 d4- | %116
 d2 c2 c8 B4 | c16 | z8 c8 | c8 c8 | c16 | z8 c8 | c12 B4 | A8 d8- | d4 c4 B4 A4 | G8 c8 | c12 B4 | %127
 A8 d8- | d4 c4 B4 A4 | B8 c8 | A16 | G16 || G16 | A8 G8 | (3c16 B4 A4 | B8 c4 A4- | A4 G2 F2 G8 | %137
 A4 F8 E2 D2 | C2 D2 E2 F2 G2 A2 B2 c2 | d4 c8 B4 | c12 B2 A2 | B4 G4 A8 | G6 A2 B2 c2 d4- | %143
 d2 c2 c8 B4 | c8 z4 G4 | A4 c4 B4 A4- | A4 G2 F2 E8 | F4 A4 G4 F4- | F4 E2 D2 C4 c4 | %149
 d6 c2 B2 A2 c4- | c2 B2 A8 G4 | A4 E6 F2 G2 A2 | B4 c4 d8 | c6 B2 A2 G2 A4- | A4 G2 F2 E4 F4- | %155
 F2 E2 E4 D8 | C8 z4 G4- | G4 A4 A8 | z4 E4 E4 F4 | G6 A2 B4 c4 | d12 c4 | B4 A2 G2 A8 | G8 C4 D4 | %163
 E4 F4 G4 A4- | A2 G2 G8 ^F4 | G6 A2 B4 c4 | d12 c4 | B4 A2 G2 A8 | G6 A2 B2 c2 d4- | d4 c8 B4 | %170
 c4 G4 c8 | B16 || z16 | z16 | G16 | (A8 c8-) | c4 B2 A2 B8 | c12 B4 | A16 | G16- | G16 | z8 G8- | %182
 G8 G8 | A8 A8 | G16 | A16 | z16 | z16 | z16 | z16 | z4 c8 B2 A2 | B4 A4 d8 | c4 B8 A2 G2 | %193
 A4 G8 F2 E2 | D4 C2 D2 E2 F2 G4 | C2 D2 E2 F2 G2 A2 B2 c2 | d4 c8 B4 | (3:2:2c16 z8 | %198
 (3:2:2c16 c8 | (3:2:2c16 c8 | (3:2:2c16 z8 | (3:2:2c16 c8- | (3:2:2c8 c16 | (3:2:2B16 B8 | %204
 (3:2:4c12 B4 A4 G4 | (3:2:2G16 F8 | (3:2:2G16 d8- | (3:2:2d8 e16 | (3:2:2d16 c8 | (3:2:2B8 A16 | %210
 G16 |] %211
V:5
 z16 | z16 | z16 | C,16- | C,16 | D,16 | C,16 | (C,16 | F,16) | F,16 | z16 | z16 | z16 | z16 | %14
 z16 | F,16- | F,8 F,8 | C,6 D,2 E,4 F,4- | F,4 E,2 D,2 C,8 | G,16 | C,6 D,2 E,4 F,4- | %21
 F,2 E,2 D,2 C,2 D,8 | C,16- | C,16 | z8 C,8- | C,8 C,8 | G,,16 | C,16 | D,16 | G,,16 || %30
 G,6 E,2 F,4 G,4- | G,4 F,2 E,2 D,8 | C,8 z8 | z8 z4 G,4 | A,6 G,2 F,4 E,4 | D,4 G,6 E,2 F,4 | %36
 G,4 C,4 D,8 | C,16 | z16 | z8 z4 D,4 | E,6 D,2 C,4 B,,4 | A,,4 D,6 B,,2 C,4 | D,6 G,,2 B,,4 A,,4 | %43
 G,,4 G,8 F,2 E,2 | F,2 E,2 D,2 C,2 D,8 | C,8 z4 C,4 | F,6 F,2 E,4 C,4 | (F,8 C,8) | G,16 | %49
 C,6 D,2 E,4 F,4- | F,2 E,2 D,2 C,2 D,8 | z4 G,8 F,2 E,2 | D,6 E,2 F,4 G,4 | A,8 F,8 | (G,8 (E,8) | %55
 D,16) | G,,16 || z16 | z16 | z16 | z16 | z16 | z16 | z16 | z16 | z16 | z16 | z16 | z16 | z16 | %70
 z16 | z16 | z16 | z16 | z16 | z16 | z16 | z16 | z16 | z16 | z16 | z16 | z16 | z16 | z16 | z16 | %86
 z16 | z16 || G,12 F,4 | G,4 A,4 ^F,8 | G,8 z8 | z16 | G,12 F,4 | G,4 A,4 F,8 | G,12 F,4 | %95
 E,4 D,2 C,2 D,8 | C,8 z8 | z16 | z16 | z8 G,8 | A,12 G,2 F,2 | G,4 F,4 D,8 | G,8 G,4 A,4- | %103
 A,2 G,2 G,8 ^F,4 | G,8 C,8 | D,12 C,4 | B,,4 A,,2 G,,2 A,,8 | G,,4 B,,4 A,,8 | G,,8 z8 | z16 | %110
 z16 | z16 | z8 F,8- | F,8 E,6 F,2 | G,4 F,8 E,2 D,2 | C,2 D,2 E,2 F,2 G,4 F,4- | F,4 E,4 D,8 | %117
 C,16 | z8 C,8 | F,8 F,8 | C,16- | C,16 | z8 F,8 | F,12 E,4 | D,8 G,8- | G,4 F,4 E,4 D,4 | %126
 C,8 F,8 | F,12 E,4 | D,8 G,8- | G,4 F,4 E,4 D,2 C,2 | D,16 | G,,16 || z16 | z16 | z16 | z16 | %136
 z16 | z16 | z16 | z16 | z16 | z8 D,8 | E,4 G,8 F,4 | E,4 C,4 D,8 | C,16 | z4 C,4 D,4 F,4- | %146
 F,4 E,2 D,2 C,8 | z16 | z8 A,,8 | B,,4 D,8 C,2 B,,2 | C,4 D,4 _B,,8 | A,,8 z8 | z8 G,8 | %153
 A,6 G,2 F,2 E,2 F,4- | F,4 E,2 D,2 C,4 D,4- | D,4 C,8 B,,4 | C,8 z4 C,4- | C,4 A,,4 A,,8 | %158
 z4 A,,4 C,4 A,,4 | G,,4 G,8 A,4 | G,4 F,2 E,2 D,4 F,4 | G,4 E,4 D,8 | z4 G,,4 A,,4 B,,4 | %163
 C,4 D,4 B,,4 C,4- | C,2 B,,2 A,,2 G,,2 A,,8 | G,,4 G,8 A,4 | G,4 F,2 E,2 D,4 F,4 | G,4 E,4 D,8 | %168
 G,,4 G,8 F,4 | E,4 C,4 G,8 | C,8 C,8 | G,,16 || C,16 | D,6 C,2 F,8- | F,4 E,2 D,2 E,8 | F,12 E,4 | %176
 F,16 | C,16 | z16 | G,,16 | C,16 | z8 C,8- | C,8 C,8 | F,8 F,8 | C,12 B,,2 A,,2 | A,,16 | z16 | %187
 z16 | z16 | z16 | z16 | z4 F,8 E,2 D,2 | E,4 D,4 G,8 | F,4 E,8 D,2 C,2 | B,,4 C,6 D,2 E,2 F,2 | %195
 G,4 C,2 D,2 E,2 F,2 G,4 | F,4 E,4 D,8 | (3:2:2C,16 z8 | (3C,12 D,4 E,8 | (3F,12 E,4 F,8 | %200
 (3:2:2C,16 z8 | (3C,12 D,4 E,8 | (3F,12 E,4 F,8 | (3:2:4G,12 F,2 E,2 D,8 | (3:2:2C,16 C,8 | %205
 (3:2:2B,,8 A,,16 | G,,16- | (3:2:2(G,,8 C,16) | (3D,12 E,4 F,8 | (3:2:2G,8 D,16 | G,,16 |] %211

